src/topics/icons/aws-iam.svg

<svg height="490" preserveAspectRatio="xMidYMid" viewBox="0 0 256 490" width="256" xmlns="http://www.w3.org/2000/svg"><g fill="#3c4929"><path d="m21 165.75-21 6.856 21.75 2.519z"/><path d="m19.955 206.806 108.045 6.908 108.045-6.908-108.045-21.056z"/><path d="m234.5 175.125 21.5-2.519-21.5-5.731z"/></g><path d="m157.387 352.929 56.606 13.396-56.756 17.116z" fill="#b7ca9d"/><path d="m19.955 92.221v-38.202l108.045-54.019.482.405-.248 48.496-.234.102-.405 1.117-59.098 23.856-.542 84.037 31.452-5.29 28.593-5.721v343.028l-32.369-16.177v-45.771l-28.354-11.338v-214.675l-47.322 4.737v-38.195l-19.955 3.995v-72.408z" fill="#4b612c"/><path d="m99.408 152.727-32.131 6.424v-85.871l32.131 10.018z" fill="#759c3e"/><path d="m183.925 27.959 52.106 26.06v38.202l19.969 7.977v72.402l-19.969-3.989v38.195l-25.441-2.538-21.881-2.199v42.939h47.336v39.284l-21.997 1.974v39.611l-53.692 10.672v45.77l53.57-15.899.122 40.38-53.692 21.282v45.771l-32.356 16.177v-343.028l28.572 5.71 30.583 4.038v-82.784l-58.338-22.498-.817-2.465v-49.003z" fill="#759c3e"/><path d="m160.356 61.941-32.356-12.931-60.723 24.27 32.131 10.018z" fill="#3c4929"/><path d="m67.277 73.28 60.723-24.27 12.775 5.104 19.581 7.827 28.353 11.353-1.515 1.541-28.876 8.991-1.74-.528-28.578-10.018-28.592 10.018z" fill="#3c4929"/><path d="m156.578 83.298 32.131-10.004v85.864l-32.131-6.446z" fill="#4b612c"/></svg>

<?xml version="1.0" encoding="UTF-8" standalone="no"?>
<svg width="256px" height="490px" viewBox="0 0 256 490" version="1.1" xmlns="http://www.w3.org/2000/svg" xmlns:xlink="http://www.w3.org/1999/xlink" preserveAspectRatio="xMidYMid">
	<g>
		<path d="M21,165.75 L0,172.606 L21.75,175.125 L21,165.75" fill="#3C4929"></path>
		<path d="M19.955,206.806 L128,213.714 L236.045,206.806 L128,185.75 L19.955,206.806" fill="#3C4929"></path>
		<path d="M234.5,175.125 L256,172.606 L234.5,166.875 L234.5,175.125" fill="#3C4929"></path>
		<path d="M157.387,352.929 L213.993,366.325 L157.237,383.441 L157.387,352.929" fill="#B7CA9D"></path>
		<path d="M19.955,92.221 L19.955,54.019 L128,0 L128.482,0.405 L128.234,48.901 L128,49.003 L127.595,50.12 L68.497,73.976 L67.955,158.013 L99.407,152.723 L128,147.002 L128,490.03 L95.631,473.853 L95.631,428.082 L67.277,416.744 L67.277,202.069 L19.955,206.806 L19.955,168.611 L0,172.606 L0,100.198 L19.955,92.221" fill="#4B612C"></path>
		<path d="M99.408,152.727 L67.277,159.151 L67.277,73.28 L99.408,83.298 L99.408,152.727" fill="#759C3E"></path>
		<path d="M183.925,27.959 L236.031,54.019 L236.031,92.221 L256,100.198 L256,172.6 L236.031,168.611 L236.031,206.806 L210.59,204.268 L188.709,202.069 L188.709,245.008 L236.045,245.008 L236.045,284.292 L214.048,286.266 L214.048,325.877 L160.356,336.549 L160.356,382.319 L213.926,366.42 L214.048,406.8 L160.356,428.082 L160.356,473.853 L128,490.03 L128,147.002 L156.572,152.712 L187.155,156.75 L187.155,73.966 L128.817,51.468 L128,49.003 L128,0 L183.925,27.959" fill="#759C3E"></path>
		<path d="M160.356,61.941 L128,49.01 L67.277,73.28 L99.408,83.298 L160.356,61.941" fill="#3C4929"></path>
		<path d="M67.277,73.28 L128,49.01 L140.775,54.114 L160.356,61.941 L188.709,73.294 L187.194,74.835 L158.318,83.826 L156.578,83.298 L128,73.28 L99.408,83.298 L67.277,73.28" fill="#3C4929"></path>
		<path d="M156.578,83.298 L188.709,73.294 L188.709,159.158 L156.578,152.712 L156.578,83.298" fill="#4B612C"></path>
	</g>
</svg>
